symbols/web/settings_applications/materialsymbolsrounded/settings_applications_wght500gradN25_40px.svg

<svg xmlns="http://www.w3.org/2000/svg" height="40" width="40"><path d="M8 35.042q-1.25 0-2.146-.896-.896-.896-.896-2.146V8q0-1.25.896-2.146Q6.75 4.958 8 4.958h24q1.25 0 2.146.896.896.896.896 2.146v24q0 1.25-.896 2.146-.896.896-2.146.896ZM8 32h24V8H8v24Zm11.292-3.875h1.458q.25 0 .458-.167.209-.166.25-.416l.375-1.709q.709-.25 1.209-.583.5-.333 1-.75l1.875.583q.25.084.521-.021.27-.104.395-.354l.709-1.333q.125-.208.062-.5-.062-.292-.312-.458l-1.375-1q.125-.75.125-1.417t-.125-1.417l1.416-1q.209-.166.271-.458.063-.292-.062-.5l-.709-1.333q-.125-.25-.375-.354-.25-.105-.5-.021l-1.916.583q-.5-.458-1-.771-.5-.312-1.209-.562l-.375-1.709q-.041-.25-.25-.416-.208-.167-.458-.167h-1.5q-.25 0-.458.167-.209.166-.25.416l-.334 1.75q-.75.209-1.25.542-.5.333-1 .75l-1.875-.583q-.25-.084-.521.021-.27.104-.395.354l-.667 1.333q-.167.208-.104.5.062.292.271.458l1.416 1q-.125.75-.125 1.417t.125 1.417l-1.375 1q-.25.166-.312.458-.063.292.104.5l.667 1.333q.125.25.375.354.25.105.541.021l1.875-.583q.5.458 1 .771.5.312 1.25.521l.334 1.75q.041.25.25.416.208.167.5.167Zm.708-4.75q-1.417 0-2.396-.979-.979-.979-.979-2.396 0-1.417.979-2.396.979-.979 2.396-.979 1.417 0 2.396.979.979.979.979 2.396 0 1.417-.979 2.396-.979.979-2.396.979ZM8 32V8v24Z"/></svg>

<svg xmlns="http://www.w3.org/2000/svg" height="40" width="40"><path d="M8 35.042Q6.75 35.042 5.854 34.146Q4.958 33.25 4.958 32V8Q4.958 6.75 5.854 5.854Q6.75 4.958 8 4.958H32Q33.25 4.958 34.146 5.854Q35.042 6.75 35.042 8V32Q35.042 33.25 34.146 34.146Q33.25 35.042 32 35.042ZM8 32H32Q32 32 32 32Q32 32 32 32V8Q32 8 32 8Q32 8 32 8H8Q8 8 8 8Q8 8 8 8V32Q8 32 8 32Q8 32 8 32ZM19.292 28.125H20.75Q21 28.125 21.208 27.958Q21.417 27.792 21.458 27.542L21.833 25.833Q22.542 25.583 23.042 25.25Q23.542 24.917 24.042 24.5L25.917 25.083Q26.167 25.167 26.438 25.062Q26.708 24.958 26.833 24.708L27.542 23.375Q27.667 23.167 27.604 22.875Q27.542 22.583 27.292 22.417L25.917 21.417Q26.042 20.667 26.042 20Q26.042 19.333 25.917 18.583L27.333 17.583Q27.542 17.417 27.604 17.125Q27.667 16.833 27.542 16.625L26.833 15.292Q26.708 15.042 26.458 14.938Q26.208 14.833 25.958 14.917L24.042 15.5Q23.542 15.042 23.042 14.729Q22.542 14.417 21.833 14.167L21.458 12.458Q21.417 12.208 21.208 12.042Q21 11.875 20.75 11.875H19.25Q19 11.875 18.792 12.042Q18.583 12.208 18.542 12.458L18.208 14.208Q17.458 14.417 16.958 14.75Q16.458 15.083 15.958 15.5L14.083 14.917Q13.833 14.833 13.562 14.938Q13.292 15.042 13.167 15.292L12.5 16.625Q12.333 16.833 12.396 17.125Q12.458 17.417 12.667 17.583L14.083 18.583Q13.958 19.333 13.958 20Q13.958 20.667 14.083 21.417L12.708 22.417Q12.458 22.583 12.396 22.875Q12.333 23.167 12.5 23.375L13.167 24.708Q13.292 24.958 13.542 25.062Q13.792 25.167 14.083 25.083L15.958 24.5Q16.458 24.958 16.958 25.271Q17.458 25.583 18.208 25.792L18.542 27.542Q18.583 27.792 18.792 27.958Q19 28.125 19.292 28.125ZM20 23.375Q18.583 23.375 17.604 22.396Q16.625 21.417 16.625 20Q16.625 18.583 17.604 17.604Q18.583 16.625 20 16.625Q21.417 16.625 22.396 17.604Q23.375 18.583 23.375 20Q23.375 21.417 22.396 22.396Q21.417 23.375 20 23.375ZM8 32Q8 32 8 32Q8 32 8 32V8Q8 8 8 8Q8 8 8 8Q8 8 8 8Q8 8 8 8V32Q8 32 8 32Q8 32 8 32Z"/></svg>
